32x32/apps/chrome-aohghmighlieiainnegkcijnfilokake-Default.svg

<svg xmlns="http://www.w3.org/2000/svg" width="32" height="32" version="1">
 <path style="opacity:0.2" d="M 7.25,5 C 6.5575,5 6,5.5575 6,6.25 v 22.5 C 6,29.442 6.5575,30 7.25,30 h 17.5 C 25.442,30 26,29.442 26,28.75 V 13 L 19.125,11.875 18,5 Z"/>
 <path fill="#528ff5" d="m7.25 4c-0.6925 0-1.25 0.5575-1.25 1.25v22.5c0 0.692 0.5575 1.25 1.25 1.25h17.5c0.692 0 1.25-0.558 1.25-1.25v-15.75l-6.875-1.125-1.125-6.875z"/>
 <path fill="#a5c5f9" d="m18 4v6.6667c0 0.736 0.597 1.333 1.333 1.333h6.667l-8-8z"/>
 <path fill="#fff" opacity=".2" d="m7.25 4c-0.6925 0-1.25 0.5575-1.25 1.25v1c0-0.6925 0.5575-1.25 1.25-1.25h10.75v-1z"/>
 <path fill="#fff" d="m10 16v1h11v-1zm0 3v1h11v-1zm0 3v1h11v-1zm0 3v1h8v-1z"/>
</svg>

<svg xmlns="http://www.w3.org/2000/svg" width="32" height="32" version="1"><path style="opacity:.2" d="M7.25 5C6.558 5 6 5.558 6 6.25v22.5c0 .692.558 1.25 1.25 1.25h17.5c.692 0 1.25-.558 1.25-1.25V13l-6.875-1.125L18 5z"/><path fill="#528ff5" d="M7.25 4C6.557 4 6 4.557 6 5.25v22.5c0 .692.557 1.25 1.25 1.25h17.5c.692 0 1.25-.558 1.25-1.25V12l-6.875-1.125L18 4z"/><path fill="#a5c5f9" d="M18 4v6.667c0 .736.597 1.333 1.333 1.333H26l-8-8z"/><path fill="#fff" opacity=".2" d="M7.25 4C6.557 4 6 4.557 6 5.25v1C6 5.557 6.557 5 7.25 5H18V4z"/><path fill="#fff" d="M10 16v1h11v-1zm0 3v1h11v-1zm0 3v1h11v-1zm0 3v1h8v-1z"/></svg>
